assets/1. 1-F/Backpack/Color/Backpack-color.svg

<svg width="100%" height="100%" viewBox="0 0 32 32" fill="none" xmlns="http://www.w3.org/2000/svg">
<rect x="11.7344" y="2.875" width="8.1875" height="12.375" rx="4.09375" stroke="url(#paint0_radial_18_17138)" stroke-width="1.65"/>
<g filter="url(#filter0_f_18_17138)">
<rect x="12.0625" y="2.875" width="8.1875" height="12.375" rx="4.09375" stroke="url(#paint1_linear_18_17138)" stroke-width="0.65"/>
</g>
<path d="M4.75 16.0938C4.75 10.0186 9.67487 5.09375 15.75 5.09375C21.8251 5.09375 26.75 10.0186 26.75 16.0938V25.9453C26.75 28.1545 24.9591 29.9453 22.75 29.9453H8.75C6.54086 29.9453 4.75 28.1545 4.75 25.9453V16.0938Z" fill="#C4C4C4" fill-opacity="0.5"/>
<g filter="url(#filter1_i_18_17138)">
<path d="M4.75 16.0938C4.75 10.0186 9.67487 5.09375 15.75 5.09375C21.8251 5.09375 26.75 10.0186 26.75 16.0938V25.9453C26.75 28.1545 24.9591 29.9453 22.75 29.9453H8.75C6.54086 29.9453 4.75 28.1545 4.75 25.9453V16.0938Z" fill="url(#paint2_radial_18_17138)"/>
<path d="M4.75 16.0938C4.75 10.0186 9.67487 5.09375 15.75 5.09375C21.8251 5.09375 26.75 10.0186 26.75 16.0938V25.9453C26.75 28.1545 24.9591 29.9453 22.75 29.9453H8.75C6.54086 29.9453 4.75 28.1545 4.75 25.9453V16.0938Z" fill="url(#paint3_linear_18_17138)"/>
<path d="M4.75 16.0938C4.75 10.0186 9.67487 5.09375 15.75 5.09375C21.8251 5.09375 26.75 10.0186 26.75 16.0938V25.9453C26.75 28.1545 24.9591 29.9453 22.75 29.9453H8.75C6.54086 29.9453 4.75 28.1545 4.75 25.9453V16.0938Z" fill="url(#paint4_linear_18_17138)"/>
</g>
<g filter="url(#filter2_f_18_17138)">
<path d="M7.08203 12.0877C8.66121 9.01079 11.8599 6.90625 15.5489 6.90625C19.2378 6.90625 22.4365 9.01079 24.0157 12.0877" stroke="url(#paint5_linear_18_17138)" stroke-linecap="round"/>
</g>
<g filter="url(#filter3_i_18_17138)">
<path d="M7.08203 12.0877C8.69874 8.94584 11.9735 6.79688 15.7501 6.79688C19.5267 6.79688 22.8014 8.94584 24.4181 12.0877" stroke="url(#paint6_linear_18_17138)" stroke-linecap="round"/>
<path d="M7.08203 12.0877C8.69874 8.94584 11.9735 6.79688 15.7501 6.79688C19.5267 6.79688 22.8014 8.94584 24.4181 12.0877" stroke="url(#paint7_linear_18_17138)" stroke-linecap="round"/>
</g>
<g filter="url(#filter4_f_18_17138)">
<path d="M7.33203 12.0877C8.94874 8.94584 12.2235 6.79688 16.0001 6.79688C19.7767 6.79688 23.0514 8.94584 24.6681 12.0877" stroke="url(#paint8_linear_18_17138)" stroke-width="0.25" stroke-linecap="round"/>
<path d="M7.33203 12.0877C8.94874 8.94584 12.2235 6.79688 16.0001 6.79688C19.7767 6.79688 23.0514 8.94584 24.6681 12.0877" stroke="url(#paint9_linear_18_17138)" stroke-width="0.25" stroke-linecap="round"/>
</g>
<g filter="url(#filter5_di_18_17138)">
<rect x="12.7969" y="9.10938" width="5.95312" height="2.9783" rx="1.25" fill="#FFC442"/>
<rect x="12.7969" y="9.10938" width="5.95312" height="2.9783" rx="1.25" fill="url(#paint10_radial_18_17138)"/>
</g>
<g filter="url(#filter6_i_18_17138)">
<path d="M21.5729 29.9453C22.6505 29.9453 23.6857 29.3789 24.0215 28.355C24.3016 27.5009 24.4531 26.5884 24.4531 25.6406C24.4531 20.834 20.5566 16.9375 15.75 16.9375C10.9434 16.9375 7.04688 20.834 7.04688 25.6406C7.04688 26.5884 7.19838 27.5009 7.4785 28.355C7.8143 29.3789 8.84953 29.9453 9.9271 29.9453H21.5729Z" fill="url(#paint11_radial_18_17138)"/>
<path d="M21.5729 29.9453C22.6505 29.9453 23.6857 29.3789 24.0215 28.355C24.3016 27.5009 24.4531 26.5884 24.4531 25.6406C24.4531 20.834 20.5566 16.9375 15.75 16.9375C10.9434 16.9375 7.04688 20.834 7.04688 25.6406C7.04688 26.5884 7.19838 27.5009 7.4785 28.355C7.8143 29.3789 8.84953 29.9453 9.9271 29.9453H21.5729Z" fill="url(#paint12_linear_18_17138)"/>
<path d="M21.5729 29.9453C22.6505 29.9453 23.6857 29.3789 24.0215 28.355C24.3016 27.5009 24.4531 26.5884 24.4531 25.6406C24.4531 20.834 20.5566 16.9375 15.75 16.9375C10.9434 16.9375 7.04688 20.834 7.04688 25.6406C7.04688 26.5884 7.19838 27.5009 7.4785 28.355C7.8143 29.3789 8.84953 29.9453 9.9271 29.9453H21.5729Z" fill="url(#paint13_radial_18_17138)"/>
</g>
<path d="M7.05692 25.2188C7.27698 20.6081 11.0848 16.9375 15.75 16.9375C20.4152 16.9375 24.223 20.6081 24.4431 25.2188C24.4498 25.0789 24.4531 24.9383 24.4531 24.7969C24.4531 19.9903 20.5566 16.0938 15.75 16.0938C10.9434 16.0938 7.04688 19.9903 7.04688 24.7969C7.04688 24.9383 7.05023 25.0789 7.05692 25.2188Z" fill="url(#paint14_radial_18_17138)"/>
<g filter="url(#filter7_i_18_17138)">
<path fill-rule="evenodd" clip-rule="evenodd" d="M7.5231 22.7684C7.10227 22.7684 6.75791 23.0914 6.7312 23.4996L6.45487 25.3901C6.39759 25.7819 6.70587 26.1328 7.10745 26.1328H7.92658C8.32688 26.1328 8.6348 25.7841 8.57962 25.3932L8.31632 23.528C8.27988 23.1016 7.95362 22.7684 7.5231 22.7684ZM7.50791 24.0039C7.75815 24.0039 7.96103 23.801 7.96103 23.5508C7.96103 23.3005 7.75815 23.0977 7.50791 23.0977C7.25766 23.0977 7.05478 23.3005 7.05478 23.5508C7.05478 23.801 7.25766 24.0039 7.50791 24.0039Z" fill="url(#paint15_radial_18_17138)"/>
</g>
<defs>
<filter id="filter0_f_18_17138" x="11.3375" y="2.15" width="9.6374" height="13.825" filterUnits="userSpaceOnUse" color-interpolation-filters="sRGB">
<feFlood flood-opacity="0" result="BackgroundImageFix"/>
<feBlend mode="normal" in="SourceGraphic" in2="BackgroundImageFix" result="shape"/>
<feGaussianBlur stdDeviation="0.2" result="effect1_foregroundBlur_18_17138"/>
</filter>
<filter id="filter1_i_18_17138" x="4.75" y="5.09375" width="22.25" height="25.1016" filterUnits="userSpaceOnUse" color-interpolation-filters="sRGB">
<feFlood flood-opacity="0" result="BackgroundImageFix"/>
<feBlend mode="normal" in="SourceGraphic" in2="BackgroundImageFix" result="shape"/>
<feColorMatrix in="SourceAlpha" type="matrix" values="0 0 0 0 0 0 0 0 0 0 0 0 0 0 0 0 0 0 127 0" result="hardAlpha"/>
<feOffset dx="0.25" dy="0.25"/>
<feGaussianBlur stdDeviation="0.5"/>
<feComposite in2="hardAlpha" operator="arithmetic" k2="-1" k3="1"/>
<feColorMatrix type="matrix" values="0 0 0 0 0.784314 0 0 0 0 0.329412 0 0 0 0 0.498039 0 0 0 1 0"/>
<feBlend mode="normal" in2="shape" result="effect1_innerShadow_18_17138"/>
</filter>
<filter id="filter2_f_18_17138" x="6.08203" y="5.90625" width="18.9338" height="7.18153" filterUnits="userSpaceOnUse" color-interpolation-filters="sRGB">
<feFlood flood-opacity="0" result="BackgroundImageFix"/>
<feBlend mode="normal" in="SourceGraphic" in2="BackgroundImageFix" result="shape"/>
<feGaussianBlur stdDeviation="0.25" result="effect1_foregroundBlur_18_17138"/>
</filter>
<filter id="filter3_i_18_17138" x="6.58203" y="6.19687" width="18.3362" height="6.39091" filterUnits="userSpaceOnUse" color-interpolation-filters="sRGB">
<feFlood flood-opacity="0" result="BackgroundImageFix"/>
<feBlend mode="normal" in="SourceGraphic" in2="BackgroundImageFix" result="shape"/>
<feColorMatrix in="SourceAlpha" type="matrix" values="0 0 0 0 0 0 0 0 0 0 0 0 0 0 0 0 0 0 127 0" result="hardAlpha"/>
<feOffset dy="-0.1"/>
<feGaussianBlur stdDeviation="0.25"/>
<feComposite in2="hardAlpha" operator="arithmetic" k2="-1" k3="1"/>
<feColorMatrix type="matrix" values="0 0 0 0 0.909804 0 0 0 0 0.380392 0 0 0 0 0.141176 0 0 0 1 0"/>
<feBlend mode="normal" in2="shape" result="effect1_innerShadow_18_17138"/>
</filter>
<filter id="filter4_f_18_17138" x="6.80703" y="6.27187" width="18.3862" height="6.34082" filterUnits="userSpaceOnUse" color-interpolation-filters="sRGB">
<feFlood flood-opacity="0" result="BackgroundImageFix"/>
<feBlend mode="normal" in="SourceGraphic" in2="BackgroundImageFix" result="shape"/>
<feGaussianBlur stdDeviation="0.2" result="effect1_foregroundBlur_18_17138"/>
</filter>
<filter id="filter5_di_18_17138" x="11.6969" y="8.20938" width="7.95312" height="4.9783" filterUnits="userSpaceOnUse" color-interpolation-filters="sRGB">
<feFlood flood-opacity="0" result="BackgroundImageFix"/>
<feColorMatrix in="SourceAlpha" type="matrix" values="0 0 0 0 0 0 0 0 0 0 0 0 0 0 0 0 0 0 127 0" result="hardAlpha"/>
<feOffset dx="-0.1" dy="0.1"/>
<feGaussianBlur stdDeviation="0.5"/>
<feComposite in2="hardAlpha" operator="out"/>
<feColorMatrix type="matrix" values="0 0 0 0 0.890196 0 0 0 0 0.176471 0 0 0 0 0.447059 0 0 0 1 0"/>
<feBlend mode="normal" in2="BackgroundImageFix" result="effect1_dropShadow_18_17138"/>
<feBlend mode="normal" in="SourceGraphic" in2="effect1_dropShadow_18_17138" result="shape"/>
<feColorMatrix in="SourceAlpha" type="matrix" values="0 0 0 0 0 0 0 0 0 0 0 0 0 0 0 0 0 0 127 0" result="hardAlpha"/>
<feOffset dx="0.25" dy="-0.25"/>
<feGaussianBlur stdDeviation="0.3"/>
<feComposite in2="hardAlpha" operator="arithmetic" k2="-1" k3="1"/>
<feColorMatrix type="matrix" values="0 0 0 0 0.945098 0 0 0 0 0.521569 0 0 0 0 0.188235 0 0 0 1 0"/>
<feBlend mode="normal" in2="shape" result="effect2_innerShadow_18_17138"/>
</filter>
<filter id="filter6_i_18_17138" x="7.04688" y="16.9375" width="17.6063" height="13.0078" filterUnits="userSpaceOnUse" color-interpolation-filters="sRGB">
<feFlood flood-opacity="0" result="BackgroundImageFix"/>
<feBlend mode="normal" in="SourceGraphic" in2="BackgroundImageFix" result="shape"/>
<feColorMatrix in="SourceAlpha" type="matrix" values="0 0 0 0 0 0 0 0 0 0 0 0 0 0 0 0 0 0 127 0" result="hardAlpha"/>
<feOffset dx="0.2"/>
<feGaussianBlur stdDeviation="0.25"/>
<feComposite in2="hardAlpha" operator="arithmetic" k2="-1" k3="1"/>
<feColorMatrix type="matrix" values="0 0 0 0 0.894969 0 0 0 0 0.370192 0 0 0 0 0.466334 0 0 0 1 0"/>
<feBlend mode="normal" in2="shape" result="effect1_innerShadow_18_17138"/>
</filter>
<filter id="filter7_i_18_17138" x="6.348" y="22.7684" width="2.23794" height="3.36438" filterUnits="userSpaceOnUse" color-interpolation-filters="sRGB">
<feFlood flood-opacity="0" result="BackgroundImageFix"/>
<feBlend mode="normal" in="SourceGraphic" in2="BackgroundImageFix" result="shape"/>
<feColorMatrix in="SourceAlpha" type="matrix" values="0 0 0 0 0 0 0 0 0 0 0 0 0 0 0 0 0 0 127 0" result="hardAlpha"/>
<feOffset dx="-0.1"/>
<feGaussianBlur stdDeviation="0.05"/>
<feComposite in2="hardAlpha" operator="arithmetic" k2="-1" k3="1"/>
<feColorMatrix type="matrix" values="0 0 0 0 1 0 0 0 0 0.694118 0 0 0 0 0.270588 0 0 0 1 0"/>
<feBlend mode="normal" in2="shape" result="effect1_innerShadow_18_17138"/>
</filter>
<radialGradient id="paint0_radial_18_17138" cx="0" cy="0" r="1" gradientUnits="userSpaceOnUse" gradientTransform="translate(19.3125 2.875) rotate(141.554) scale(5.22698 8.81171)">
<stop stop-color="#CE4767"/>
<stop offset="1" stop-color="#AF3349"/>
</radialGradient>
<linearGradient id="paint1_linear_18_17138" x1="19.9531" y1="5.28125" x2="14.6094" y2="3.40625" gradientUnits="userSpaceOnUse">
<stop stop-color="#D85773"/>
<stop offset="1" stop-color="#BD385C"/>
</linearGradient>
<radialGradient id="paint2_radial_18_17138" cx="0" cy="0" r="1" gradientUnits="userSpaceOnUse" gradientTransform="translate(19.6875 10.5) rotate(112.419) scale(15.077 14.1797)">
<stop offset="0.216088" stop-color="#FF5AAC"/>
<stop offset="1" stop-color="#E02E7A"/>
</radialGradient>
<linearGradient id="paint3_linear_18_17138" x1="26.0625" y1="30.5625" x2="15.4375" y2="23.1875" gradientUnits="userSpaceOnUse">
<stop stop-color="#F63659"/>
<stop offset="1" stop-color="#F63659" stop-opacity="0"/>
</linearGradient>
<linearGradient id="paint4_linear_18_17138" x1="5.375" y1="29.5625" x2="11.375" y2="21.1875" gradientUnits="userSpaceOnUse">
<stop offset="0.0351833" stop-color="#D64456"/>
<stop offset="1" stop-color="#D64456" stop-opacity="0"/>
</linearGradient>
<linearGradient id="paint5_linear_18_17138" x1="24.0157" y1="10.288" x2="12.008" y2="10.288" gradientUnits="userSpaceOnUse">
<stop stop-color="#FF2274"/>
<stop offset="1" stop-color="#DA2D56"/>
</linearGradient>
<linearGradient id="paint6_linear_18_17138" x1="7.08203" y1="11.4687" x2="15.3126" y2="11.4687" gradientUnits="userSpaceOnUse">
<stop stop-color="#E98832"/>
<stop offset="1" stop-color="#FFC349"/>
</linearGradient>
<linearGradient id="paint7_linear_18_17138" x1="24.4182" y1="11.8125" x2="18.8751" y2="6.79687" gradientUnits="userSpaceOnUse">
<stop stop-color="#FFC74B"/>
<stop offset="1" stop-color="#FFC24C" stop-opacity="0"/>
</linearGradient>
<linearGradient id="paint8_linear_18_17138" x1="25.3438" y1="11.625" x2="16.9376" y2="5.6875" gradientUnits="userSpaceOnUse">
<stop stop-color="#FFEF6F"/>
<stop offset="1" stop-color="#FFEF6F" stop-opacity="0"/>
</linearGradient>
<linearGradient id="paint9_linear_18_17138" x1="7.50009" y1="11.9063" x2="11.1876" y2="8.21875" gradientUnits="userSpaceOnUse">
<stop stop-color="#F78843"/>
<stop offset="1" stop-color="#F78843" stop-opacity="0"/>
</linearGradient>
<radialGradient id="paint10_radial_18_17138" cx="0" cy="0" r="1" gradientUnits="userSpaceOnUse" gradientTransform="translate(13.8125 10.5985) scale(5.09375 4.62022)">
<stop offset="0.791411" stop-color="#FFEB6D" stop-opacity="0"/>
<stop offset="1" stop-color="#FFEB6D"/>
</radialGradient>
<radialGradient id="paint11_radial_18_17138" cx="0" cy="0" r="1" gradientUnits="userSpaceOnUse" gradientTransform="translate(21.875 20.5625) rotate(131.779) scale(10.225 10.5218)">
<stop stop-color="#FF56A6"/>
<stop offset="1" stop-color="#F02779"/>
</radialGradient>
<linearGradient id="paint12_linear_18_17138" x1="16.6875" y1="30.4375" x2="16.6875" y2="26.5625" gradientUnits="userSpaceOnUse">
<stop stop-color="#E41863"/>
<stop offset="1" stop-color="#E41863" stop-opacity="0"/>
</linearGradient>
<radialGradient id="paint13_radial_18_17138" cx="0" cy="0" r="1" gradientUnits="userSpaceOnUse" gradientTransform="translate(9.75 24.4375) rotate(15.4456) scale(15.254 15.6227)">
<stop offset="0.903867" stop-color="#F55178" stop-opacity="0"/>
<stop offset="1" stop-color="#F55178"/>
</radialGradient>
<radialGradient id="paint14_radial_18_17138" cx="0" cy="0" r="1" gradientUnits="userSpaceOnUse" gradientTransform="translate(21.5938 17.5) rotate(127.129) scale(9.68135 18.4675)">
<stop offset="0.522193" stop-color="#CB184D"/>
<stop offset="1" stop-color="#AA2743"/>
</radialGradient>
<radialGradient id="paint15_radial_18_17138" cx="0" cy="0" r="1" gradientUnits="userSpaceOnUse" gradientTransform="translate(7.51701 25.1562) rotate(-90) scale(1.64062 1.0426)">
<stop stop-color="#FFB54E"/>
<stop offset="1" stop-color="#FFAF4D"/>
</radialGradient>
</defs>
</svg>

<svg width="100%" height="100%" viewBox="0 0 32 32" xmlns="http://www.w3.org/2000/svg"><rect width="8.188" height="12.375" x="11.734" y="2.875" stroke="url(#a)" stroke-width="1.65" rx="4.094"/><g filter="url(#b)"><rect width="8.188" height="12.375" x="12.063" y="2.875" stroke="url(#c)" stroke-width=".65" rx="4.094"/></g><path fill="#C4C4C4" fill-opacity=".5" d="M4.75 16.094c0-6.075 4.925-11 11-11s11 4.925 11 11v9.851a4 4 0 0 1-4 4h-14a4 4 0 0 1-4-4z"/><g filter="url(#d)"><path fill="url(#e)" d="M4.75 16.094c0-6.075 4.925-11 11-11s11 4.925 11 11v9.851a4 4 0 0 1-4 4h-14a4 4 0 0 1-4-4z"/><path fill="url(#f)" d="M4.75 16.094c0-6.075 4.925-11 11-11s11 4.925 11 11v9.851a4 4 0 0 1-4 4h-14a4 4 0 0 1-4-4z"/><path fill="url(#g)" d="M4.75 16.094c0-6.075 4.925-11 11-11s11 4.925 11 11v9.851a4 4 0 0 1-4 4h-14a4 4 0 0 1-4-4z"/></g><g filter="url(#h)"><path stroke="url(#i)" stroke-linecap="round" d="M7.082 12.088a9.51 9.51 0 0 1 8.467-5.182 9.51 9.51 0 0 1 8.467 5.182"/></g><g stroke-linecap="round" filter="url(#j)"><path stroke="url(#k)" d="M7.082 12.088a9.74 9.74 0 0 1 8.668-5.291 9.74 9.74 0 0 1 8.668 5.29"/><path stroke="url(#l)" d="M7.082 12.088a9.74 9.74 0 0 1 8.668-5.291 9.74 9.74 0 0 1 8.668 5.29"/></g><g stroke-linecap="round" stroke-width=".25" filter="url(#m)"><path stroke="url(#n)" d="M7.332 12.088A9.74 9.74 0 0 1 16 6.797a9.74 9.74 0 0 1 8.668 5.29"/><path stroke="url(#o)" d="M7.332 12.088A9.74 9.74 0 0 1 16 6.797a9.74 9.74 0 0 1 8.668 5.29"/></g><g filter="url(#p)"><rect width="5.953" height="2.978" x="12.797" y="9.109" fill="#FFC442" rx="1.25"/><rect width="5.953" height="2.978" x="12.797" y="9.109" fill="url(#q)" rx="1.25"/></g><g filter="url(#r)"><path fill="url(#s)" d="M21.573 29.945c1.078 0 2.113-.566 2.448-1.59a8.703 8.703 0 1 0-16.543 0c.336 1.024 1.372 1.59 2.45 1.59z"/><path fill="url(#t)" d="M21.573 29.945c1.078 0 2.113-.566 2.448-1.59a8.703 8.703 0 1 0-16.543 0c.336 1.024 1.372 1.59 2.45 1.59z"/><path fill="url(#u)" d="M21.573 29.945c1.078 0 2.113-.566 2.448-1.59a8.703 8.703 0 1 0-16.543 0c.336 1.024 1.372 1.59 2.45 1.59z"/></g><path fill="url(#v)" d="M7.057 25.219a8.703 8.703 0 0 1 17.386 0q.01-.21.01-.422a8.703 8.703 0 1 0-17.396.422"/><g filter="url(#w)"><path fill="url(#x)" fill-rule="evenodd" d="M7.523 22.768a.79.79 0 0 0-.792.732l-.276 1.89a.653.653 0 0 0 .652.743h.82c.4 0 .708-.349.653-.74l-.264-1.865c-.036-.426-.362-.76-.793-.76m-.015 1.236a.453.453 0 1 0 0-.906.453.453 0 0 0 0 .906" clip-rule="evenodd"/></g><defs><linearGradient id="c" x1="19.953" x2="14.609" y1="5.281" y2="3.406" gradientUnits="userSpaceOnUse"><stop stop-color="#D85773"/><stop offset="1" stop-color="#BD385C"/></linearGradient><linearGradient id="f" x1="26.063" x2="15.438" y1="30.563" y2="23.188" gradientUnits="userSpaceOnUse"><stop stop-color="#F63659"/><stop offset="1" stop-color="#F63659" stop-opacity="0"/></linearGradient><linearGradient id="g" x1="5.375" x2="11.375" y1="29.563" y2="21.188" gradientUnits="userSpaceOnUse"><stop offset=".035" stop-color="#D64456"/><stop offset="1" stop-color="#D64456" stop-opacity="0"/></linearGradient><linearGradient id="i" x1="24.016" x2="12.008" y1="10.288" y2="10.288" gradientUnits="userSpaceOnUse"><stop stop-color="#FF2274"/><stop offset="1" stop-color="#DA2D56"/></linearGradient><linearGradient id="k" x1="7.082" x2="15.313" y1="11.469" y2="11.469" gradientUnits="userSpaceOnUse"><stop stop-color="#E98832"/><stop offset="1" stop-color="#FFC349"/></linearGradient><linearGradient id="l" x1="24.418" x2="18.875" y1="11.813" y2="6.797" gradientUnits="userSpaceOnUse"><stop stop-color="#FFC74B"/><stop offset="1" stop-color="#FFC24C" stop-opacity="0"/></linearGradient><linearGradient id="n" x1="25.344" x2="16.938" y1="11.625" y2="5.688" gradientUnits="userSpaceOnUse"><stop stop-color="#FFEF6F"/><stop offset="1" stop-color="#FFEF6F" stop-opacity="0"/></linearGradient><linearGradient id="o" x1="7.5" x2="11.188" y1="11.906" y2="8.219" gradientUnits="userSpaceOnUse"><stop stop-color="#F78843"/><stop offset="1" stop-color="#F78843" stop-opacity="0"/></linearGradient><linearGradient id="t" x1="16.688" x2="16.688" y1="30.438" y2="26.563" gradientUnits="userSpaceOnUse"><stop stop-color="#E41863"/><stop offset="1" stop-color="#E41863" stop-opacity="0"/></linearGradient><filter id="b" width="9.637" height="13.825" x="11.338" y="2.15" color-interpolation-filters="sRGB" filterUnits="userSpaceOnUse"><feFlood flood-opacity="0" result="BackgroundImageFix"/><feBlend in="SourceGraphic" in2="BackgroundImageFix" result="shape"/><feGaussianBlur result="effect1_foregroundBlur_18_17138" stdDeviation=".2"/></filter><filter id="d" width="22.25" height="25.102" x="4.75" y="5.094" color-interpolation-filters="sRGB" filterUnits="userSpaceOnUse"><feFlood flood-opacity="0" result="BackgroundImageFix"/><feBlend in="SourceGraphic" in2="BackgroundImageFix" result="shape"/><feColorMatrix in="SourceAlpha" result="hardAlpha" values="0 0 0 0 0 0 0 0 0 0 0 0 0 0 0 0 0 0 127 0"/><feOffset dx=".25" dy=".25"/><feGaussianBlur stdDeviation=".5"/><feComposite in2="hardAlpha" k2="-1" k3="1" operator="arithmetic"/><feColorMatrix values="0 0 0 0 0.784314 0 0 0 0 0.329412 0 0 0 0 0.498039 0 0 0 1 0"/><feBlend in2="shape" result="effect1_innerShadow_18_17138"/></filter><filter id="h" width="18.934" height="7.182" x="6.082" y="5.906" color-interpolation-filters="sRGB" filterUnits="userSpaceOnUse"><feFlood flood-opacity="0" result="BackgroundImageFix"/><feBlend in="SourceGraphic" in2="BackgroundImageFix" result="shape"/><feGaussianBlur result="effect1_foregroundBlur_18_17138" stdDeviation=".25"/></filter><filter id="j" width="18.336" height="6.391" x="6.582" y="6.197" color-interpolation-filters="sRGB" filterUnits="userSpaceOnUse"><feFlood flood-opacity="0" result="BackgroundImageFix"/><feBlend in="SourceGraphic" in2="BackgroundImageFix" result="shape"/><feColorMatrix in="SourceAlpha" result="hardAlpha" values="0 0 0 0 0 0 0 0 0 0 0 0 0 0 0 0 0 0 127 0"/><feOffset dy="-.1"/><feGaussianBlur stdDeviation=".25"/><feComposite in2="hardAlpha" k2="-1" k3="1" operator="arithmetic"/><feColorMatrix values="0 0 0 0 0.909804 0 0 0 0 0.380392 0 0 0 0 0.141176 0 0 0 1 0"/><feBlend in2="shape" result="effect1_innerShadow_18_17138"/></filter><filter id="m" width="18.386" height="6.341" x="6.807" y="6.272" color-interpolation-filters="sRGB" filterUnits="userSpaceOnUse"><feFlood flood-opacity="0" result="BackgroundImageFix"/><feBlend in="SourceGraphic" in2="BackgroundImageFix" result="shape"/><feGaussianBlur result="effect1_foregroundBlur_18_17138" stdDeviation=".2"/></filter><filter id="p" width="7.953" height="4.978" x="11.697" y="8.209" color-interpolation-filters="sRGB" filterUnits="userSpaceOnUse"><feFlood flood-opacity="0" result="BackgroundImageFix"/><feColorMatrix in="SourceAlpha" result="hardAlpha" values="0 0 0 0 0 0 0 0 0 0 0 0 0 0 0 0 0 0 127 0"/><feOffset dx="-.1" dy=".1"/><feGaussianBlur stdDeviation=".5"/><feComposite in2="hardAlpha" operator="out"/><feColorMatrix values="0 0 0 0 0.890196 0 0 0 0 0.176471 0 0 0 0 0.447059 0 0 0 1 0"/><feBlend in2="BackgroundImageFix" result="effect1_dropShadow_18_17138"/><feBlend in="SourceGraphic" in2="effect1_dropShadow_18_17138" result="shape"/><feColorMatrix in="SourceAlpha" result="hardAlpha" values="0 0 0 0 0 0 0 0 0 0 0 0 0 0 0 0 0 0 127 0"/><feOffset dx=".25" dy="-.25"/><feGaussianBlur stdDeviation=".3"/><feComposite in2="hardAlpha" k2="-1" k3="1" operator="arithmetic"/><feColorMatrix values="0 0 0 0 0.945098 0 0 0 0 0.521569 0 0 0 0 0.188235 0 0 0 1 0"/><feBlend in2="shape" result="effect2_innerShadow_18_17138"/></filter><filter id="r" width="17.606" height="13.008" x="7.047" y="16.938" color-interpolation-filters="sRGB" filterUnits="userSpaceOnUse"><feFlood flood-opacity="0" result="BackgroundImageFix"/><feBlend in="SourceGraphic" in2="BackgroundImageFix" result="shape"/><feColorMatrix in="SourceAlpha" result="hardAlpha" values="0 0 0 0 0 0 0 0 0 0 0 0 0 0 0 0 0 0 127 0"/><feOffset dx=".2"/><feGaussianBlur stdDeviation=".25"/><feComposite in2="hardAlpha" k2="-1" k3="1" operator="arithmetic"/><feColorMatrix values="0 0 0 0 0.894969 0 0 0 0 0.370192 0 0 0 0 0.466334 0 0 0 1 0"/><feBlend in2="shape" result="effect1_innerShadow_18_17138"/></filter><filter id="w" width="2.238" height="3.364" x="6.348" y="22.768" color-interpolation-filters="sRGB" filterUnits="userSpaceOnUse"><feFlood flood-opacity="0" result="BackgroundImageFix"/><feBlend in="SourceGraphic" in2="BackgroundImageFix" result="shape"/><feColorMatrix in="SourceAlpha" result="hardAlpha" values="0 0 0 0 0 0 0 0 0 0 0 0 0 0 0 0 0 0 127 0"/><feOffset dx="-.1"/><feGaussianBlur stdDeviation=".05"/><feComposite in2="hardAlpha" k2="-1" k3="1" operator="arithmetic"/><feColorMatrix values="0 0 0 0 1 0 0 0 0 0.694118 0 0 0 0 0.270588 0 0 0 1 0"/><feBlend in2="shape" result="effect1_innerShadow_18_17138"/></filter><radialGradient id="a" cx="0" cy="0" r="1" gradientTransform="rotate(141.554 9.155 4.805)scale(5.22698 8.81171)" gradientUnits="userSpaceOnUse"><stop stop-color="#CE4767"/><stop offset="1" stop-color="#AF3349"/></radialGradient><radialGradient id="e" cx="0" cy="0" r="1" gradientTransform="matrix(-5.75002 13.93747 -13.108 -5.40781 19.688 10.5)" gradientUnits="userSpaceOnUse"><stop offset=".216" stop-color="#FF5AAC"/><stop offset="1" stop-color="#E02E7A"/></radialGradient><radialGradient id="q" cx="0" cy="0" r="1" gradientTransform="matrix(5.09375 0 0 4.62022 13.813 10.598)" gradientUnits="userSpaceOnUse"><stop offset=".791" stop-color="#FFEB6D" stop-opacity="0"/><stop offset="1" stop-color="#FFEB6D"/></radialGradient><radialGradient id="s" cx="0" cy="0" r="1" gradientTransform="matrix(-6.8125 7.62499 -7.84632 -7.01025 21.875 20.563)" gradientUnits="userSpaceOnUse"><stop stop-color="#FF56A6"/><stop offset="1" stop-color="#F02779"/></radialGradient><radialGradient id="u" cx="0" cy="0" r="1" gradientTransform="rotate(15.446 -85.227 48.167)scale(15.254 15.6227)" gradientUnits="userSpaceOnUse"><stop offset=".904" stop-color="#F55178" stop-opacity="0"/><stop offset="1" stop-color="#F55178"/></radialGradient><radialGradient id="v" cx="0" cy="0" r="1" gradientTransform="rotate(127.129 6.447 14.118)scale(9.68135 18.4675)" gradientUnits="userSpaceOnUse"><stop offset=".522" stop-color="#CB184D"/><stop offset="1" stop-color="#AA2743"/></radialGradient><radialGradient id="x" cx="0" cy="0" r="1" gradientTransform="matrix(0 -1.64062 1.0426 0 7.517 25.156)" gradientUnits="userSpaceOnUse"><stop stop-color="#FFB54E"/><stop offset="1" stop-color="#FFAF4D"/></radialGradient></defs></svg>
